src/sponsor_logos/berner.svg

<svg xmlns="http://www.w3.org/2000/svg" xml:space="preserve" style="fill-rule:evenodd;clip-rule:evenodd;stroke-linejoin:round;stroke-miterlimit:2" viewBox="0 0 1015 154"><path d="M1359.75 2572.02h42.79v110.42h67.23v-67.27h-52.72l36.29-43.15h59.2v153.21h-152.79z" style="fill:#ed1c24" transform="translate(-1359.75 -2571.95)"/><path d="M1580.16 2571.95v153.35h70.47c54.75-.41 62.87-70.41 17.23-82.73 31.99-14.3 26.03-64.86-12.11-70.47zm135.66 0v153.66h93.9v-36.32h-52.77v-25.15h44.39v-33.68h-44.39v-22.19h50.91v-36.32zm184.54 0-68.91.15v153.2h40.97v-55.41l35.86 55.41h51.53l-45.95-62.4c40.25-14.13 44.97-88.93-13.5-90.95m67.83 0v153.35h40.51v-80.25l58.05 80.25h37.09v-153.35h-40.51v78.07l-59.13-78.07zm163.28 0v153.19l93.59.16v-36.01h-52.3v-25.15h43.61v-33.68h-43.61v-22.19h50.44v-36.32zm183.15 0-68.45.15v153.2h40.51v-56.66l36.16 56.66h51.69l-46.41-62.4c40.25-14.13 44.96-88.93-13.5-90.95m-693.95 30.27 13.5.15c18.57.65 15.69 28.67.47 27.78h-13.97zm251.75 3.88h16.15c18.19 1.52 15.06 30.48-1.71 31.35l-14.44-.16zm414.26 0h16.14c18.2 1.52 15.06 30.48-1.7 31.35l-14.44-.16zm-648.63 55.25c21.6 1.01 19.08 30.55 0 31.35h-17.38v-31.19z" style="fill:#0060ae" transform="translate(-1359.75 -2571.95)"/></svg>

<?xml version="1.0" encoding="UTF-8" standalone="no"?>
<!DOCTYPE svg PUBLIC "-//W3C//DTD SVG 1.1//EN" "http://www.w3.org/Graphics/SVG/1.1/DTD/svg11.dtd">
<svg width="100%" height="100%" viewBox="0 0 1015 154" version="1.1" xmlns="http://www.w3.org/2000/svg" xmlns:xlink="http://www.w3.org/1999/xlink" xml:space="preserve" xmlns:serif="http://www.serif.com/" style="fill-rule:evenodd;clip-rule:evenodd;stroke-linejoin:round;stroke-miterlimit:2;">
    <g transform="matrix(1,0,0,1,-4.60976,-4.67065)">
        <g id="layer1" transform="matrix(1,0,0,1,-1355.14,-2567.28)">
            <path id="path2682" d="M1359.75,2572.02L1402.54,2572.02L1402.54,2682.44L1469.77,2682.44L1469.77,2615.17L1417.05,2615.17L1453.34,2572.02L1512.54,2572.02L1512.54,2725.23L1359.75,2725.23L1359.75,2572.02" style="fill:rgb(237,28,36);"/>
            <path id="path2684" d="M1580.16,2571.95L1580.16,2725.3L1650.63,2725.3C1705.38,2724.89 1713.5,2654.89 1667.86,2642.57C1699.85,2628.27 1693.89,2577.71 1655.75,2572.1L1580.16,2571.95ZM1715.82,2571.95L1715.82,2725.61L1809.72,2725.61L1809.72,2689.29L1756.95,2689.29L1756.95,2664.14L1801.34,2664.14L1801.34,2630.46L1756.95,2630.46L1756.95,2608.27L1807.86,2608.27L1807.86,2571.95L1715.82,2571.95ZM1900.36,2571.95L1831.45,2572.1L1831.45,2725.3L1872.42,2725.3L1872.42,2669.89L1908.28,2725.3L1959.81,2725.3L1913.86,2662.9C1954.11,2648.77 1958.83,2573.97 1900.36,2571.95ZM1968.19,2571.95L1968.19,2725.3L2008.7,2725.3L2008.7,2645.05L2066.75,2725.3L2103.84,2725.3L2103.84,2571.95L2063.33,2571.95L2063.33,2650.02L2004.2,2571.95L1968.19,2571.95ZM2131.47,2571.95L2131.47,2725.14L2225.06,2725.3L2225.06,2689.29L2172.76,2689.29L2172.76,2664.14L2216.37,2664.14L2216.37,2630.46L2172.76,2630.46L2172.76,2608.27L2223.2,2608.27L2223.2,2571.95L2131.47,2571.95ZM2314.62,2571.95L2246.17,2572.1L2246.17,2725.3L2286.68,2725.3L2286.68,2668.64L2322.84,2725.3L2374.53,2725.3L2328.12,2662.9C2368.37,2648.77 2373.08,2573.97 2314.62,2571.95ZM1620.67,2602.22L1634.17,2602.37C1652.74,2603.02 1649.86,2631.04 1634.64,2630.15L1620.67,2630.15L1620.67,2602.22ZM1872.42,2606.1L1888.57,2606.1C1906.76,2607.62 1903.63,2636.58 1886.86,2637.45L1872.42,2637.29L1872.42,2606.1ZM2286.68,2606.1L2302.82,2606.1C2321.02,2607.62 2317.88,2636.58 2301.12,2637.45L2286.68,2637.29L2286.68,2606.1ZM1638.05,2661.35C1659.65,2662.36 1657.13,2691.9 1638.05,2692.7L1620.67,2692.7L1620.67,2661.51L1638.05,2661.35Z" style="fill:rgb(0,96,174);"/>
        </g>
    </g>
</svg>
